source/img/icons/icon-cat.svg

<svg xmlns="http://www.w3.org/2000/svg" height="512pt" version="1.1" viewBox="-27 0 512 512" width="512pt">
<g id="surface1">
<path d="M 263.902344 462.167969 C 252.683594 462.167969 243.585938 453.070312 243.585938 441.851562 C 243.585938 430.628906 252.683594 421.53125 263.902344 421.53125 C 322.027344 421.53125 327.894531 397.046875 338.539062 352.597656 C 348.199219 312.269531 360.21875 262.078125 421.179688 231.960938 C 431.234375 226.992188 443.425781 231.113281 448.394531 241.175781 C 453.367188 251.238281 449.238281 263.421875 439.179688 268.394531 C 395.300781 290.070312 386.925781 325.039062 378.058594 362.0625 C 372.367188 385.828125 366.480469 410.402344 350.429688 429.558594 C 332.042969 451.503906 303.742188 462.167969 263.902344 462.167969 Z M 263.902344 462.167969 " style=" stroke:none;fill-rule:nonzero;fill:rgb(65.098039%,42.745098%,76.078431%);fill-opacity:1;" />
<path d="M 330.0625 383.519531 C 321.160156 408.257812 306.695312 421.53125 263.902344 421.53125 C 252.679688 421.53125 243.582031 430.628906 243.582031 441.851562 C 243.582031 453.070312 252.679688 462.167969 263.902344 462.167969 C 290.96875 462.167969 312.703125 457.238281 329.628906 447.199219 C 336.507812 423.257812 334.976562 402.0625 330.0625 383.519531 Z M 330.0625 383.519531 " style=" stroke:none;fill-rule:nonzero;fill:rgb(56.470588%,37.254902%,65.882353%);fill-opacity:1;" />
<path d="M 268.402344 293.433594 L 112.441406 293.433594 C 120.015625 352.421875 29 395.378906 110.824219 492.394531 C 117.335938 500.117188 126.976562 504.5 137.078125 504.5 L 243.765625 504.5 C 253.867188 504.5 263.507812 500.117188 270.019531 492.394531 C 351.84375 395.378906 260.828125 352.421875 268.402344 293.433594 Z M 268.402344 293.433594 " style=" stroke:none;fill-rule:nonzero;fill:rgb(65.098039%,42.745098%,76.078431%);fill-opacity:1;" />
<path d="M 268.402344 35.738281 C 268.402344 35.738281 298.332031 2.445312 352.933594 8.160156 C 361.117188 9.015625 367.890625 14.949219 369.636719 22.988281 C 374.53125 45.53125 379.75 94.445312 348.78125 140.828125 Z M 268.402344 35.738281 " style=" stroke:none;fill-rule:nonzero;fill:rgb(56.470588%,37.254902%,65.882353%);fill-opacity:1;" />
<path d="M 323.4375 123.902344 C 344.542969 92.289062 344.582031 59.054688 341.414062 37.996094 C 341.164062 37.992188 340.910156 37.992188 340.660156 37.992188 C 308.902344 37.992188 291.246094 55.914062 291.070312 56.113281 Z M 323.4375 123.902344 " style=" stroke:none;fill-rule:nonzero;fill:rgb(99.215686%,60.392157%,78.431373%);fill-opacity:1;" />
<path d="M 112.441406 35.738281 C 112.441406 35.738281 82.511719 2.445312 27.910156 8.160156 C 19.726562 9.015625 12.953125 14.949219 11.207031 22.988281 C 6.3125 45.53125 1.09375 94.445312 32.0625 140.828125 Z M 112.441406 35.738281 " style=" stroke:none;fill-rule:nonzero;fill:rgb(56.470588%,37.254902%,65.882353%);fill-opacity:1;" />
<path d="M 57.40625 123.902344 C 36.300781 92.289062 36.261719 59.054688 39.429688 37.996094 C 39.679688 37.992188 39.933594 37.992188 40.183594 37.992188 C 71.941406 37.992188 89.597656 55.914062 89.773438 56.113281 Z M 57.40625 123.902344 " style=" stroke:none;fill-rule:nonzero;fill:rgb(99.215686%,60.392157%,78.431373%);fill-opacity:1;" />
<path d="M 112.441406 293.433594 C 114.195312 307.101562 110.65625 319.90625 105.203125 332.726562 C 128.910156 338.355469 156.902344 341.054688 190.421875 341.054688 C 223.941406 341.054688 251.933594 338.355469 275.640625 332.726562 C 270.1875 319.90625 266.648438 307.101562 268.402344 293.433594 Z M 112.441406 293.433594 " style=" stroke:none;fill-rule:nonzero;fill:rgb(56.470588%,37.254902%,65.882353%);fill-opacity:1;" />
<path d="M 190.421875 311.054688 C 276.019531 311.054688 355.679688 293.183594 355.679688 197.851562 C 355.679688 74.171875 269.730469 16.171875 190.421875 16.171875 C 111.113281 16.171875 25.164062 74.171875 25.164062 197.855469 C 25.164062 293.183594 104.824219 311.054688 190.421875 311.054688 Z M 190.421875 311.054688 " style=" stroke:none;fill-rule:nonzero;fill:rgb(65.098039%,42.745098%,76.078431%);fill-opacity:1;" />
<path d="M 275.734375 210.929688 L 255.78125 210.929688 C 251.640625 210.929688 248.28125 207.574219 248.28125 203.429688 C 248.28125 199.289062 251.640625 195.929688 255.78125 195.929688 L 275.734375 195.929688 C 279.875 195.929688 283.234375 199.289062 283.234375 203.429688 C 283.234375 207.574219 279.875 210.929688 275.734375 210.929688 Z M 275.734375 210.929688 " style=" stroke:none;fill-rule:nonzero;fill:rgb(99.215686%,60.392157%,78.431373%);fill-opacity:1;" />
<path d="M 125.0625 210.929688 L 105.109375 210.929688 C 100.96875 210.929688 97.609375 207.574219 97.609375 203.429688 C 97.609375 199.289062 100.96875 195.929688 105.109375 195.929688 L 125.0625 195.929688 C 129.203125 195.929688 132.5625 199.289062 132.5625 203.429688 C 132.5625 207.574219 129.203125 210.929688 125.0625 210.929688 Z M 125.0625 210.929688 " style=" stroke:none;fill-rule:nonzero;fill:rgb(99.215686%,60.392157%,78.431373%);fill-opacity:1;" />
<path d="M 265.816406 189.398438 C 269.957031 189.398438 273.316406 186.042969 273.316406 181.898438 L 273.316406 167.253906 C 273.316406 163.109375 269.957031 159.753906 265.816406 159.753906 C 261.675781 159.753906 258.316406 163.109375 258.316406 167.253906 L 258.316406 181.898438 C 258.316406 186.042969 261.675781 189.398438 265.816406 189.398438 Z M 265.816406 189.398438 " style=" stroke:none;fill-rule:nonzero;fill:rgb(0%,0%,0%);fill-opacity:1;" />
<path d="M 115.144531 189.398438 C 119.285156 189.398438 122.644531 186.042969 122.644531 181.898438 L 122.644531 167.253906 C 122.644531 163.109375 119.285156 159.753906 115.144531 159.753906 C 111 159.753906 107.644531 163.109375 107.644531 167.253906 L 107.644531 181.898438 C 107.644531 186.042969 111 189.398438 115.144531 189.398438 Z M 115.144531 189.398438 " style=" stroke:none;fill-rule:nonzero;fill:rgb(0%,0%,0%);fill-opacity:1;" />
<path d="M 190.480469 210.105469 C 197.894531 210.105469 204.867188 206.996094 209.601562 201.578125 C 212.328125 198.460938 212.011719 193.722656 208.890625 190.996094 C 205.773438 188.269531 201.035156 188.589844 198.308594 191.707031 C 196.421875 193.867188 193.566406 195.105469 190.480469 195.105469 C 187.394531 195.105469 184.539062 193.867188 182.652344 191.707031 C 179.925781 188.589844 175.1875 188.269531 172.070312 190.996094 C 168.949219 193.722656 168.632812 198.460938 171.359375 201.578125 C 176.09375 206.996094 183.0625 210.105469 190.480469 210.105469 Z M 190.480469 210.105469 " style=" stroke:none;fill-rule:nonzero;fill:rgb(0%,0%,0%);fill-opacity:1;" />
<path d="M 17.722656 197.855469 C 17.722656 244.171875 36.054688 277.464844 72.210938 296.816406 C 81.785156 301.9375 92.535156 306.113281 104.6875 309.386719 C 102.542969 322.332031 96.105469 335.222656 89.335938 348.761719 C 79.480469 368.476562 68.308594 390.820312 69.074219 417.410156 C 69.195312 421.550781 72.652344 424.8125 76.789062 424.6875 C 80.929688 424.570312 84.1875 421.117188 84.070312 416.976562 C 83.410156 394.15625 93.242188 374.492188 102.753906 355.472656 C 109.917969 341.144531 116.746094 327.480469 119.347656 312.761719 C 131.816406 315.191406 145.601562 316.839844 160.894531 317.734375 C 180.574219 318.882812 200.398438 318.855469 220.074219 317.734375 C 235.367188 316.839844 249.148438 315.191406 261.613281 312.761719 C 264.214844 327.480469 271.050781 341.144531 278.214844 355.472656 C 287.101562 373.238281 296.289062 391.605469 296.90625 412.519531 C 297.015625 416.292969 296.828125 420.15625 296.367188 423.929688 C 293.894531 444.097656 283.34375 465.03125 264.347656 487.558594 C 259.285156 493.558594 251.808594 497 243.824219 497 L 238.539062 497 C 258.277344 454.542969 252.5625 402.40625 252.28125 400.011719 C 251.804688 395.898438 248.082031 392.949219 243.972656 393.425781 C 239.855469 393.902344 236.90625 397.621094 237.382812 401.738281 C 237.449219 402.308594 243.535156 457.636719 221.730469 497 L 197.980469 497 L 197.980469 400.875 C 197.980469 396.734375 194.621094 393.375 190.480469 393.375 C 186.339844 393.375 182.980469 396.734375 182.980469 400.875 L 182.980469 497 L 159.230469 497 C 137.519531 457.785156 143.496094 402.480469 143.578125 401.734375 C 144.054688 397.621094 141.105469 393.902344 136.988281 393.425781 C 132.875 392.949219 129.152344 395.898438 128.679688 400.011719 C 128.402344 402.40625 122.683594 454.542969 142.421875 497 L 137.136719 497 C 129.15625 497 121.675781 493.558594 116.617188 487.558594 C 104.042969 472.652344 95.023438 458.171875 89.800781 444.515625 C 88.324219 440.644531 83.988281 438.707031 80.117188 440.1875 C 76.25 441.664062 74.3125 446 75.789062 449.871094 C 81.695312 465.316406 91.300781 480.808594 105.148438 497.230469 C 113.066406 506.617188 124.726562 512 137.136719 512 L 243.824219 512 C 256.238281 512 267.898438 506.617188 275.8125 497.230469 C 284.542969 486.878906 291.660156 476.757812 297.203125 466.800781 C 322.609375 462.035156 341.960938 451.414062 356.234375 434.378906 C 373.421875 413.867188 379.515625 388.421875 385.410156 363.8125 C 388.855469 349.417969 392.113281 335.820312 397.378906 323.136719 C 398.964844 319.308594 397.152344 314.921875 393.324219 313.332031 C 389.496094 311.746094 385.109375 313.558594 383.523438 317.386719 C 377.804688 331.171875 374.253906 345.988281 370.820312 360.316406 C 365.332031 383.238281 359.652344 406.941406 344.738281 424.742188 C 334.859375 436.535156 321.886719 444.699219 305.332031 449.496094 C 308.003906 442.453125 309.832031 435.480469 310.875 428.511719 C 311.332031 425.464844 311.65625 422.394531 311.8125 419.3125 C 333.292969 406.933594 338.902344 383.523438 345.890625 354.34375 C 350.582031 334.753906 355.902344 312.546875 367.238281 292.085938 C 380.117188 268.847656 398.863281 251.378906 424.558594 238.683594 C 430.828125 235.589844 438.640625 238.25 441.726562 244.5 C 444.824219 250.773438 442.167969 258.578125 435.910156 261.671875 C 420.789062 269.140625 408.851562 278.449219 399.410156 290.132812 C 396.804688 293.351562 397.304688 298.074219 400.527344 300.679688 C 403.75 303.28125 408.472656 302.78125 411.074219 299.5625 C 419.125 289.601562 429.421875 281.609375 442.554688 275.117188 C 456.050781 268.449219 461.84375 251.644531 455.28125 238.074219 C 455.246094 238.003906 455.210938 237.929688 455.175781 237.855469 C 448.511719 224.367188 431.691406 218.574219 418.132812 225.128906 C 418.058594 225.164062 417.988281 225.199219 417.914062 225.234375 C 389.390625 239.328125 368.523438 258.816406 354.117188 284.8125 C 341.789062 307.0625 336.21875 330.324219 331.300781 350.851562 C 325.542969 374.890625 321.59375 391.339844 310.933594 401.398438 C 308.066406 381.679688 299.417969 364.332031 291.628906 348.761719 C 284.855469 335.222656 278.417969 322.332031 276.273438 309.386719 C 288.425781 306.113281 299.175781 301.9375 308.746094 296.816406 C 344.902344 277.464844 363.238281 244.167969 363.238281 197.851562 C 363.238281 178.15625 361.089844 159.535156 356.890625 142.175781 C 386.90625 95.070312 382.464844 46.464844 377.023438 21.398438 C 374.597656 10.21875 365.25 1.902344 353.773438 0.699219 C 349.332031 0.234375 344.867188 0 340.507812 0 C 301.542969 0 276.496094 18.292969 267.074219 26.664062 C 243.527344 15.007812 217.167969 8.675781 190.480469 8.675781 C 163.789062 8.675781 137.429688 15.007812 113.886719 26.664062 C 104.460938 18.292969 79.410156 0 40.449219 0 C 36.089844 0 31.628906 0.234375 27.1875 0.699219 C 15.707031 1.902344 6.363281 10.21875 3.9375 21.398438 C -1.507812 46.464844 -5.945312 95.070312 24.070312 142.175781 C 19.871094 159.535156 17.722656 178.15625 17.722656 197.855469 Z M 46.082031 45.71875 C 58.226562 46.679688 67.710938 50.484375 74.160156 54.054688 C 73.027344 55.109375 71.917969 56.1875 70.816406 57.277344 C 62.429688 65.582031 54.933594 74.777344 48.484375 84.664062 C 45.085938 70.128906 45.027344 56.539062 46.082031 45.71875 Z M 332.476562 84.664062 C 328.34375 78.324219 323.800781 72.300781 318.867188 66.601562 C 315.207031 62.375 311.332031 58.332031 307.265625 54.496094 C 307.109375 54.351562 306.957031 54.199219 306.800781 54.054688 C 313.25 50.488281 322.734375 46.679688 334.875 45.722656 C 335.929688 56.535156 335.871094 70.132812 332.476562 84.664062 Z M 340.511719 15 C 344.351562 15 348.285156 15.207031 352.210938 15.617188 C 357.234375 16.144531 361.316406 19.746094 362.363281 24.582031 C 366.859375 45.269531 370.636719 83.5625 351 122.304688 C 350.683594 121.414062 348.734375 116.550781 348.207031 114.964844 C 346.511719 110.761719 344.679688 106.65625 342.703125 102.648438 C 352.105469 77.210938 351.3125 52.988281 348.890625 36.878906 C 348.34375 33.234375 345.230469 30.53125 341.546875 30.496094 L 340.71875 30.492188 C 319.433594 30.492188 303.945312 37.75 294.71875 43.8125 C 290.386719 40.480469 285.882812 37.355469 281.207031 34.453125 C 291.171875 26.828125 311.335938 15 340.511719 15 Z M 290.480469 59.652344 C 330.757812 93.300781 348.238281 146.628906 348.238281 197.851562 C 348.238281 238.777344 333.007812 266.820312 301.671875 283.589844 C 273.113281 298.871094 239.191406 302.265625 207.320312 303.296875 C 207.0625 303.304688 173.898438 303.304688 173.640625 303.296875 C 141.757812 302.257812 107.882812 298.890625 79.289062 283.589844 C 47.953125 266.820312 32.722656 238.777344 32.722656 197.851562 C 32.722656 150.378906 46.964844 102.40625 81.144531 68.207031 C 109.742188 39.59375 150.152344 23.675781 190.480469 23.675781 C 227.085938 23.675781 262.996094 36.691406 290.480469 59.652344 Z M 18.59375 24.582031 C 19.644531 19.746094 23.726562 16.144531 28.75 15.617188 C 32.675781 15.207031 36.609375 15 40.449219 15 C 69.417969 15 89.679688 26.855469 99.710938 34.476562 C 95.050781 37.375 90.5625 40.492188 86.242188 43.8125 C 77.015625 37.75 61.523438 30.492188 40.242188 30.492188 L 39.414062 30.496094 C 35.730469 30.53125 32.617188 33.234375 32.070312 36.878906 C 29.648438 52.988281 28.855469 77.210938 38.257812 102.648438 C 36.273438 106.671875 34.433594 110.796875 32.734375 115.015625 C 32.125 116.523438 30.289062 121.382812 29.960938 122.308594 C 10.324219 83.5625 14.101562 45.269531 18.59375 24.582031 Z M 18.59375 24.582031 " style=" stroke:none;fill-rule:nonzero;fill:rgb(0%,0%,0%);fill-opacity:1;" />
</g>
</svg>

<svg xmlns="http://www.w3.org/2000/svg" height="512pt" viewBox="-27 0 512 512" width="512pt"><g id="surface1"><path d="M263.902 462.168c-11.218 0-20.316-9.098-20.316-20.316 0-11.223 9.098-20.32 20.316-20.32 58.125 0 63.993-24.485 74.637-68.934 9.66-40.328 21.68-90.52 82.64-120.637 10.055-4.969 22.247-.848 27.216 9.215 4.972 10.062.843 22.246-9.215 27.219-43.88 21.675-52.254 56.644-61.121 93.668-5.692 23.765-11.579 48.34-27.63 67.496-18.386 21.945-46.687 32.609-86.527 32.609zm0 0" fill="#a66dc2"/><path d="M330.063 383.52c-8.903 24.738-23.368 38.011-66.16 38.011-11.223 0-20.321 9.098-20.321 20.32 0 11.22 9.098 20.317 20.32 20.317 27.067 0 48.801-4.93 65.727-14.969 6.879-23.941 5.348-45.137.433-63.68zm0 0" fill="#905fa8"/><path d="M268.402 293.434h-155.96c7.574 58.988-83.442 101.945-1.618 198.96 6.512 7.723 16.153 12.106 26.254 12.106h106.688c10.101 0 19.742-4.383 26.254-12.105 81.824-97.016-9.192-139.973-1.618-198.961zm0 0" fill="#a66dc2"/><path d="M268.402 35.738s29.93-33.293 84.532-27.578c8.183.856 14.957 6.79 16.703 14.828 4.894 22.543 10.113 71.457-20.856 117.84zm0 0" fill="#905fa8"/><path d="M323.438 123.902c21.105-31.613 21.144-64.847 17.976-85.906-.25-.004-.504-.004-.754-.004-31.758 0-49.414 17.922-49.59 18.121zm0 0" fill="#fd9ac8"/><path d="M112.441 35.738S82.511 2.445 27.911 8.16c-8.184.856-14.958 6.79-16.704 14.828-4.895 22.543-10.113 71.457 20.855 117.84zm0 0" fill="#905fa8"/><path d="M57.406 123.902C36.301 92.29 36.262 59.055 39.43 37.996c.25-.004.504-.004.754-.004 31.757 0 49.414 17.922 49.59 18.121zm0 0" fill="#fd9ac8"/><path d="M112.441 293.434c1.754 13.668-1.785 26.472-7.238 39.293 23.707 5.628 51.7 8.328 85.219 8.328 33.52 0 61.512-2.7 85.219-8.328-5.454-12.82-8.993-25.625-7.239-39.293zm0 0" fill="#905fa8"/><path d="M190.422 311.055c85.598 0 165.258-17.871 165.258-113.203 0-123.68-85.95-181.68-165.258-181.68-79.309 0-165.258 58-165.258 181.683 0 95.329 79.66 113.2 165.258 113.2zm0 0" fill="#a66dc2"/><path d="M275.734 210.93h-19.953a7.5 7.5 0 110-15h19.953a7.5 7.5 0 110 15zm-150.671 0h-19.954a7.5 7.5 0 110-15h19.954a7.5 7.5 0 110 15zm0 0" fill="#fd9ac8"/><path d="M265.816 189.398a7.5 7.5 0 007.5-7.5v-14.644a7.5 7.5 0 00-7.5-7.5 7.5 7.5 0 00-7.5 7.5v14.644a7.5 7.5 0 007.5 7.5zm-150.671 0a7.5 7.5 0 007.5-7.5v-14.644a7.5 7.5 0 00-7.5-7.5 7.497 7.497 0 00-7.5 7.5v14.644c0 4.145 3.355 7.5 7.5 7.5zm75.335 20.707c7.415 0 14.387-3.109 19.122-8.527a7.497 7.497 0 00-.711-10.582 7.5 7.5 0 00-10.582.711c-1.887 2.16-4.743 3.398-7.829 3.398-3.085 0-5.94-1.238-7.828-3.398a7.5 7.5 0 00-10.582-.71 7.497 7.497 0 00-.71 10.581c4.734 5.418 11.702 8.527 19.12 8.527zm0 0"/><path d="M17.723 197.855c0 46.317 18.332 79.61 54.488 98.961 9.574 5.122 20.324 9.297 32.477 12.57-2.145 12.946-8.583 25.837-15.352 39.376-9.856 19.715-21.027 42.058-20.262 68.648.121 4.14 3.578 7.402 7.715 7.277a7.498 7.498 0 007.281-7.71c-.66-22.82 9.172-42.485 18.684-61.504 7.164-14.328 13.992-27.993 16.594-42.711 12.468 2.43 26.254 4.078 41.547 4.972 19.68 1.149 39.503 1.121 59.18 0 15.292-.894 29.073-2.543 41.538-4.972 2.602 14.718 9.438 28.383 16.602 42.71 8.887 17.766 18.074 36.133 18.691 57.048a76.455 76.455 0 01-.539 11.41c-2.472 20.168-13.023 41.101-32.02 63.629-5.062 6-12.538 9.441-20.523 9.441h-5.285c19.738-42.457 14.024-94.594 13.742-96.988a7.499 7.499 0 00-8.308-6.586 7.498 7.498 0 00-6.59 8.312c.066.57 6.152 55.899-15.653 95.262h-23.75v-96.125c0-4.14-3.359-7.5-7.5-7.5-4.14 0-7.5 3.36-7.5 7.5V497h-23.75c-21.71-39.215-15.734-94.52-15.652-95.266a7.497 7.497 0 00-6.59-8.308 7.494 7.494 0 00-8.308 6.586c-.278 2.394-5.996 54.531 13.742 96.988h-5.285c-7.98 0-15.461-3.441-20.52-9.441-12.574-14.907-21.594-29.387-26.816-43.043a7.496 7.496 0 00-9.684-4.329c-3.867 1.477-5.805 5.813-4.328 9.684 5.906 15.445 15.512 30.938 29.36 47.36 7.917 9.386 19.578 14.769 31.988 14.769h106.687c12.414 0 24.074-5.383 31.988-14.77 8.731-10.351 15.848-20.472 21.391-30.43 25.406-4.765 44.758-15.386 59.031-32.421 17.188-20.512 23.282-45.957 29.176-70.567 3.445-14.394 6.703-27.992 11.969-40.675a7.504 7.504 0 00-4.055-9.805 7.498 7.498 0 00-9.8 4.055c-5.72 13.785-9.27 28.601-12.704 42.93-5.488 22.921-11.168 46.624-26.082 64.425-9.879 11.793-22.851 19.957-39.406 24.754 2.672-7.043 4.5-14.016 5.543-20.984.457-3.047.781-6.117.938-9.2 21.48-12.378 27.09-35.789 34.078-64.968 4.691-19.59 10.011-41.797 21.347-62.258 12.88-23.238 31.625-40.707 57.32-53.402 6.27-3.094 14.083-.434 17.169 5.816 3.097 6.273.441 14.078-5.817 17.172-15.12 7.469-27.058 16.777-36.5 28.46a7.497 7.497 0 001.117 10.548c3.223 2.601 7.946 2.101 10.547-1.118 8.051-9.96 18.348-17.953 31.48-24.445 13.497-6.668 19.29-23.472 12.727-37.043a9.094 9.094 0 01-.105-.219c-6.664-13.488-23.485-19.28-37.043-12.726l-.219.105c-28.523 14.094-49.39 33.582-63.797 59.578-12.328 22.25-17.898 45.512-22.816 66.04-5.758 24.039-9.707 40.488-20.367 50.546-2.868-19.718-11.516-37.066-19.305-52.636-6.774-13.54-13.211-26.43-15.356-39.375 12.153-3.274 22.903-7.45 32.473-12.57 36.156-19.352 54.492-52.649 54.492-98.965 0-19.696-2.148-38.317-6.347-55.676 30.015-47.106 25.574-95.711 20.132-120.778C374.598 10.218 365.25 1.902 353.773.7c-4.441-.466-8.906-.7-13.265-.7-38.965 0-64.012 18.293-73.434 26.664-23.547-11.656-49.906-17.988-76.594-17.988-26.69 0-53.05 6.332-76.593 17.988C104.46 18.293 79.41 0 40.449 0c-4.36 0-8.82.234-13.261.7-11.481 1.202-20.825 9.519-23.25 20.698C-1.508 46.465-5.945 95.07 24.07 142.176c-4.199 17.36-6.347 35.98-6.347 55.68zM46.082 45.72c12.145.96 21.629 4.765 28.078 8.336a152.963 152.963 0 00-3.344 3.222 166.88 166.88 0 00-22.332 27.387C45.086 70.13 45.027 56.54 46.082 45.72zm286.395 38.945a166.512 166.512 0 00-25.211-30.168c-.157-.144-.309-.297-.465-.441 6.449-3.567 15.933-7.375 28.074-8.332 1.055 10.812.996 24.41-2.398 38.941zM340.512 15c3.84 0 7.773.207 11.699.617 5.023.528 9.105 4.13 10.152 8.965 4.496 20.688 8.274 58.98-11.363 97.723-.316-.89-2.266-5.754-2.793-7.34a180.354 180.354 0 00-5.504-12.317c9.402-25.437 8.61-49.66 6.188-65.77a7.496 7.496 0 00-7.344-6.382l-.828-.004c-21.285 0-36.774 7.258-46 13.32a164.148 164.148 0 00-13.512-9.359C291.172 26.828 311.336 15 340.512 15zM290.48 59.652c40.278 33.649 57.758 86.977 57.758 138.2 0 40.925-15.23 68.968-46.566 85.738-28.559 15.281-62.48 18.676-94.352 19.707-.257.008-33.422.008-33.68 0-31.882-1.04-65.757-4.406-94.35-19.707-31.337-16.77-46.567-44.813-46.567-85.738 0-47.473 14.242-95.446 48.422-129.645 28.597-28.613 69.007-44.531 109.335-44.531 36.606 0 72.516 13.015 100 35.976zM18.594 24.582c1.05-4.836 5.133-8.437 10.156-8.965 3.926-.41 7.86-.617 11.7-.617 28.968 0 49.23 11.855 59.26 19.477a165.783 165.783 0 00-13.468 9.336c-9.226-6.063-24.719-13.32-46-13.32l-.828.003a7.496 7.496 0 00-7.344 6.383c-2.422 16.11-3.215 40.332 6.188 65.77a179.912 179.912 0 00-5.524 12.367c-.609 1.507-2.445 6.367-2.773 7.293-19.637-38.746-15.86-77.04-11.367-97.727zm0 0"/></g></svg>
